X:1
T:The Redeemed of the Lord
T:The Redeemed of the Lord
T:George Coles Stebbins
T:Frances Virginia Thomas Hubbard, 1901
T:Public Domain Courtesy of the Cyber Hymnal™
T:Public Domain Courtesy of the Cyber Hymnal™
C:George Coles Stebbins
Z:Public Domain
Z:Courtesy of the Cyber Hymnal™
%%score ( 1 2 ) ( 3 4 )
L:1/8
Q:1/4=100
M:4/4
K:Eb
V:1 treble 
V:2 treble 
V:3 bass 
V:4 bass 
V:1
 [EG][FA] | [GB]2 [Ac]>[Ac] [GB]2 [EG][GB] | [Ge]6 [Ge]2 | [Ae]2 [Bd]>[Ac] [ce]2 [Bd]>[Ac] | %4
w: 1.~The re-|deemed of the Lord shall re-|turn To|Zi- on with mu- sic and|
w: 2.~The re-|deemed of the Lord shall re-|turn From|lands where, as cap- tive, they|
w: 3.~The re-|deemed of the Lord shall re-|turn With|sing- ing for Zi- on’s bright|
 [GB]4 z2 [GB]2 | [FB]2 [DF]>[DG] [DA]2 [Dc][Dc] | [EB]2 [EG]>[GB] [Ge]2 [Gc][Gc] | %7
w: song; And|dai- ly sweet les- sons of|mer- cy will learn, As they|
w: sighed; With|love and de- vo- tion their|spir- its shall burn, As they|
w: day; Far,|far on the hill- tops their|glad eyes dis- cern, A- nd|
 [Bd]2 [Bf]>[FB] [Fd]2 [Fd]>[Ec] | [DB]4 z2 ||"^Refrain" [AB]2 | [Ge]6 [Gd]>[Gc] | %11
w: jour- ney the path- way a-|long.|||
w: sing of the One cru- ci-|fied.|With|joy and with|
w: sor- row and fear flee a-|way.|||
 [Ad]2 [Ad]4 [FA]2 | c6 B>=A x/ | [EB]4 z2 [EB]2 | B6 [_E=A]>[EB] | [Fd]2 [DF]4 [Fd]2 | %16
w: |||||
w: sing- ing, Thanks-|giv- ing and|praise, Their|sweet voic- es|ring- ing In|
w: |||||
 [Fc]2 [Ff]4 [E=A]2 | B6 [FB]2 | [Ge]6 [Gd]>[Gc] | [Ad]2 [Ad]4 [FA]2 | c6 [EB]>[E=A] | %21
w: |||||
w: tri- umph- ant|lays; His|mer- cy and|good- ness Shall|still be their|
w: |||||
 [EB]6 [AB]2 | [GB]6 [EG]>[Ge] | [Ae]2 [Ac]4 [^Fc]2 | [GB]2 [Ge]4 [Ad]2 | !fermata!e6 |] %26
w: |||||
w: song, As|home- ward to|Zi- on They|jour- ney a-|long.|
w: |||||
V:2
 x2 | x8 | x8 | x8 | x8 | x8 | x8 | x8 | x6 || x2 | x8 | x8 | (F2 F2 D2) E2 x/ | x8 | %14
 (=E2 E2 E2) x2 | x8 | x8 | (D4 E2) x2 | x8 | x8 | (F2 F2 D2) x2 | x8 | x8 | x8 | x8 | %25
 (G2 A2 G2) |] %26
V:3
 [E,B,][E,B,] | [E,E]2 [E,E]>[E,E] [E,E]2 [E,B,][E,B,] | B,6 [E,_D]2 | %3
w: ~ ~|~ ~ ~ ~ ~ ~|~ ~|
 [A,C]2 [A,D]>[A,E] [A,E]2 [A,E]>[A,E] | [E,E]4 z2 [E,E]2 | %5
w: ~ ~ ~ ~ ~ ~|~ ~|
 [B,,D]2 [A,B,]>[G,B,] [F,B,]2 [B,,A,][B,,A,] | [E,G,]2 [E,B,]>[E,B,] [C,C]2 [E,C][E,C] | %7
w: ~ ~ ~ ~ ~ ~|~ ~ ~ ~ ~ ~|
 [F,B,]2 [F,D]>[F,D] [F,B,]2 [F,=A,]>[F,A,] | [B,,B,]4 z2 || [B,D]2 | %10
w: ~ ~ ~ ~ ~ ~|~|~|
 [E,E]2 [E,B,]2 [E,B,]2 [E,B,]>[E,B,] | [F,B,]2 [F,B,]4 [B,,D]2 | D2 D2 B,2 E2 ^F,/ | %13
w: ~ With joy ~ ~|~ ~ ~|~ ~ ~ ~ ~|
 [G,E]4 z2 [G,E]2 | _D2 D2 D2 [=G,C]>[G,B,] | [F,B,]2 [F,B,]4 [F,B,]2 | [F,=A,]2 [F,A,]4 [F,C]2 | %17
w: ~ ~|~ ~ Their sweet ~|~ ~ ~|~ ~ ~|
 B,6 [D,B,]2 | [E,B,]2 [E,B,]2 [E,B,]2 [E,B,]>[E,B,] | [F,B,]2 [F,B,]4 [B,,D]2 | %20
w: ~ ~|~ ~ mer- cy, mer-|cy ~ ~|
 D2 D2 B,2 [G,B,]>[^F,C] | [G,E]6 [F,D]2 | [E,_D]2 [E,D]2 [E,D]2 [E,D]>[E,D] | %23
w: ~ ~ Shall still ~|~ ~|~ home- ward, home- ward|
 [A,C]2 [A,E]4 [=A,E]2 | [B,E]2 B,4 B,2 | B,2 C2 B,2 |] %26
w: ~ ~ ~|~ ~ ~|~ ~ a-|
V:4
 x2 | x8 | (E,2 F,2 B,2) x2 | x8 | x8 | x8 | x8 | x8 | x6 || x2 | x8 | x8 | A,6 G,3/2 x | x8 | %14
 _G,6 x2 | x8 | x8 | B,,4 C,2 x2 | x8 | x8 | A,6 x2 | x8 | x8 | x8 | x2 B,4 B,2 | E,6 |] %26

